src/images/svg/binary-to-deriv/over-100-icon.svg

<svg width="48" height="48" fill="none" xmlns="http://www.w3.org/2000/svg"><rect width="48" height="48" rx="8" fill="#98BE71"/><path fill-rule="evenodd" clip-rule="evenodd" d="M32 16H16c-.55 0-1 .45-1 1v2c0 .55.45 1 1 1h16c.55 0 1-.45 1-1v-2c0-.55-.45-1-1-1zm-16 6h16c.55 0 1 .45 1 1v1c0 .55-.45 1-1 1H16c-.55 0-1-.45-1-1v-1c0-.55.45-1 1-1zm0 5h16c.55 0 1 .45 1 1s-.45 1-1 1H16c-.55 0-1-.45-1-1s.45-1 1-1zm-.5 4h17c.28 0 .5.22.5.5s-.22.5-.5.5h-17c-.28 0-.5-.22-.5-.5s.22-.5.5-.5z" fill="#fff"/></svg>

<svg width="48" height="48" viewBox="0 0 48 48" fill="none" xmlns="http://www.w3.org/2000/svg">
<rect width="48" height="48" rx="8" fill="#98BE71"/>
<path fill-rule="evenodd" clip-rule="evenodd" d="M32 16H16C15.45 16 15 16.45 15 17V19C15 19.55 15.45 20 16 20H32C32.55 20 33 19.55 33 19V17C33 16.45 32.55 16 32 16ZM16 22H32C32.55 22 33 22.45 33 23V24C33 24.55 32.55 25 32 25H16C15.45 25 15 24.55 15 24V23C15 22.45 15.45 22 16 22ZM16 27H32C32.55 27 33 27.45 33 28C33 28.55 32.55 29 32 29H16C15.45 29 15 28.55 15 28C15 27.45 15.45 27 16 27ZM15.5 31H32.5C32.78 31 33 31.22 33 31.5C33 31.78 32.78 32 32.5 32H15.5C15.22 32 15 31.78 15 31.5C15 31.22 15.22 31 15.5 31Z" fill="white"/>
</svg>
